X: 327
T: FILL THE GLASS
T: Lion an gloine
B: O'Neill's 327
M: 3/4
L: 1/4
Z: 1999 by John Chambers <jc@trillian.mit.edu>
N: "Moderate"
N: "Collected by F.O'Neill"
K:G
  (G2F) | (GA).c | (d2c) | A2d \
| c2(A/G/) | (F2D) | D2D | (DEF) |
| (G2F) | (GA).c | d2A | cde \
| =fed | cAF | G3 | G3 ||
|| (g2f) | (g2a) | g2f | d2e \
| =f2e | (de=f) | d2A | (F2D) |
| (G2F) | (GA).c | d2A | cde \
| =fed | cAF | G3 | G3 ||


